assets/svg/walletassets.svg

<svg width="30" height="30" viewBox="0 0 30 30" fill="none" xmlns="http://www.w3.org/2000/svg">
<rect x="0.416667" y="0.416667" width="29.1667" height="29.1667" rx="14.5833" fill="#FAFBFF"/>
<rect x="0.416667" y="0.416667" width="29.1667" height="29.1667" rx="14.5833" stroke="#E1EAF8" stroke-width="0.833333" stroke-linecap="round"/>
<rect x="0.416667" y="0.416667" width="29.1667" height="29.1667" rx="7.91667" fill="white" stroke="#E1EAF8" stroke-width="0.833333" stroke-linecap="round"/>
<g clip-path="url(#clip0_21802_44445)">
<path d="M22.5 11.6667C22.5 10.2859 19.8883 9.16675 16.6667 9.16675C13.445 9.16675 10.8333 10.2859 10.8333 11.6667M22.5 11.6667V15.0001C22.5 15.8501 21.5117 16.6001 20 17.0517C19.055 17.3351 17.9058 17.5001 16.6667 17.5001C15.4275 17.5001 14.2783 17.3342 13.3333 17.0517C11.8225 16.6001 10.8333 15.8501 10.8333 15.0001V11.6667M22.5 11.6667C22.5 12.5167 21.5117 13.2667 20 13.7184C19.055 14.0017 17.9058 14.1667 16.6667 14.1667C15.4275 14.1667 14.2783 14.0009 13.3333 13.7184C11.8225 13.2667 10.8333 12.5167 10.8333 11.6667M7.5 15.0001V18.3334C7.5 19.1834 8.48917 19.9334 10 20.3851C10.945 20.6684 12.0942 20.8334 13.3333 20.8334C14.5725 20.8334 15.7217 20.6676 16.6667 20.3851C18.1775 19.9334 19.1667 19.1834 19.1667 18.3334V17.5001M7.5 15.0001C7.5 14.0026 8.8625 13.1417 10.8333 12.7409M7.5 15.0001C7.5 15.8501 8.48917 16.6001 10 17.0517C10.945 17.3351 12.0942 17.5001 13.3333 17.5001C13.9125 17.5001 14.4717 17.4642 15 17.3967" stroke="#494949" stroke-linecap="round" stroke-linejoin="round"/>
</g>
<defs>
<clipPath id="clip0_21802_44445">
<rect width="20" height="20" fill="white" transform="translate(5 5)"/>
</clipPath>
</defs>
</svg>

<svg xmlns="http://www.w3.org/2000/svg" width="30" height="30" fill="none"><rect width="29.167" height="29.167" x=".417" y=".417" fill="#FAFBFF" rx="14.583"/><rect width="29.167" height="29.167" x=".417" y=".417" stroke="#E1EAF8" stroke-linecap="round" stroke-width=".833" rx="14.583"/><rect width="29.167" height="29.167" x=".417" y=".417" fill="#fff" stroke="#E1EAF8" stroke-linecap="round" stroke-width=".833" rx="7.917"/><g clip-path="url(#a)"><path stroke="#494949" stroke-linecap="round" stroke-linejoin="round" d="M22.5 11.667c0-1.381-2.612-2.5-5.833-2.5s-5.834 1.119-5.834 2.5m11.667 0V15c0 .85-.988 1.6-2.5 2.052-.945.283-2.094.448-3.333.448s-2.389-.166-3.334-.448c-1.51-.452-2.5-1.202-2.5-2.052v-3.333m11.667 0c0 .85-.988 1.6-2.5 2.051-.945.284-2.094.449-3.333.449s-2.389-.166-3.334-.449c-1.51-.451-2.5-1.201-2.5-2.051M7.5 15v3.333c0 .85.99 1.6 2.5 2.052.945.283 2.094.448 3.333.448s2.389-.165 3.334-.448c1.51-.452 2.5-1.202 2.5-2.052V17.5M7.5 15c0-.997 1.363-1.858 3.333-2.26M7.5 15c0 .85.99 1.6 2.5 2.052.945.283 2.094.448 3.333.448.58 0 1.139-.036 1.667-.103"/></g><defs><clipPath id="a"><path fill="#fff" d="M5 5h20v20H5z"/></clipPath></defs></svg>
